shader_type spatial;

varying float height;

void vertex() {

}

void fragment() {
	ALBEDO = vec3(0.0);
}

//void light() {
	// Called for every pixel for every light affecting the material.
	// Uncomment to replace the default light processing function with this one.
//}
